X:1
T:D minor          Solomon Howe, 1804
T:Anonymous, first published with this tune in 1804           88. 88. (L. M.)
T:Lexington
T:Transcribed from The Farmer's Evening Entertainment, 1804.
%%score [ 1 2 3 4 ]
L:1/8
Q:1/4=140
M:3/2
K:F
V:1 treble nm="Tr." snm="Tr."
V:2 treble nm="C." snm="C."
V:3 treble-8 nm="T." snm="T."
V:4 bass nm="B." snm="B."
V:1
 A4 | d8 c4 | A8 (G2 F2) | A8 c4 | d8 d4 | (c3 B A4) A4 | (c4 d4) e4 | (f3 e f4) d4 | ^c8 c4 | %9
 A8 A4 | d8 c4 | (A3 G A4) d4 | ^c8 d4 | (A3 G F4) (3(A2 B2 c2) | (d4 c4) A4 | (c4 B4) A4 | A12 |: %17
[M:2/2][Q:1/4=110] z4 A4 | d2 A2 d2 c2 | AB A2 A4 | A4 d2 d2 | A2 c2 c2 A>B | ^c4 A4 | %23
 c2 c2 c2 A2 | A2 c>d e4 | f4 d2 c2 | B2 B2 A2 A2 | A8 :| %28
V:2
 D4 | F8 G4 | (A3 G F4) (F3 E) | (D4 C4) (3(C2 D2 E2) | F8 F4 | (A3 G F4) (F3 G) | %6
w: 1.~The|Prince of|Peace,~ _ _ whose~ _|gen- * tle~ _ _|sway True|life~ _ _ and~ _|
 (A3 G F4) (E2 FG) | A8 (G2 F2) | E8 E4 | F8 (E2 FG) | A8 (A3 G) | F8 F4 | E8 F4 | F8 (E2 FG) | %14
w: light~ _ _ and~ _ _|joy con- *|vey; From|his ex- * *|al- ted *|throne a-|bove, The|fruits of~ _ _|
 A8 F4 | G8 E4 | [DF]12 |:[M:2/2] z4 D4 | F2 F2 A2 A2 | F2 E2 F4 | F4 F2 F2 | D2 E2 F2 F2 | E4 F4 | %23
w: his ce-|les- tial|love.|The|an- cient pro- phets|long fore- told|The Gos- pel|time, more worth than|gold; When|
 A2 A2 A2 F2 | F2 A2 G4 | A4 A2 A2 | G2 GF E2 E2 | [DF]8 :| %28
w: great Mes- si- ah|could con- vey|His love to|dis- tant * lands and|seas.|
V:3
 A4 | (F3 G A4) c4 | (d4 c4) B4 | (A3 G F4) G4 | A8 A4 | (A3 B c4) d4 | (e4 d4) c4 | (d4 c4) B4 | %8
w: 2.~His|word,~ _ _ that|gives~ _ the|pre- * * cious|news Of|par- * * don,|both~ _ to|Greeks~ _ and|
 A8 A4 | d8 e4 | f8 e4 | (d4 c4) B4 | A8 A4 | d8 c4 | (f4 e4) d4 | (e4 d4) ^c4 | d12 |: %17
w: Jews, Free-|dom to|eve- ry|hum- * ble|mind, With|bliss ex-|al- * ted|and~ _ re-|fined.|
[M:2/2] z4 A4 | A2 d2 f2 e2 | d2 c2 d4 | c4 A2 A2 | F2 G2 A2 c>B | A4 d4 | e2 f2 e2 d2 | %24
w: As|coo- ling wa- ters|gent- ly flow,|His grace shall|heal each mor- tal *|woe; And|grant re- lief from|
 c2 A>B c4 | d4 f2 f2 | d2 d2 c2 c2 | d8 :| %28
w: pain and * sin,|From fears with-|out and guilt with-|in.|
V:4
 D,4 | D,8 E,4 | (F,3 G, A,4) D,4 | (D,3 E, F,4) E,4 | D,8 D,4 | F,8 F,4 | (A,4 B,4) A,4 | %7
 (D,3 E, F,4) (E,2 D,2) | A,,8 A,,4 | (D,3 E, F,4) E,4 | D,8 A,4 | (D,3 E, F,4) (E,2 D,2) | %12
 A,,8 D,4 | (F,3 G, A,4) A,4 | (F,3 G, A,4) D,4 | (E,3 F, G,4) [A,,A,]4 | D,12 |:[M:2/2] z4 D,4 | %18
 D,2 D,2 D,2 A,2 | F,<G, A,2 D,4 | F,4 D,2 D,2 | D,2 C,2 A,,B,, C,2 | A,,4 D,4 | A,2 F,2 A,2 D,2 | %24
 F,2 F,2 C,4 | D,4 D,2 A,2 | G,2 G,2 A,2 A,,2 | D,8 :| %28

